X:1     %Music
T:Polly Oliver
B:Singing Together, Spring 1975, BBC Publications
F:http://www.folkinfo.org/songs
M:3/4     %Meter
L:1/8     %
K:Eb
B2 |e2 d2 c2 |BG E2 F2 |(GE) C2 D2 | E4 
w:As sweet Pol-ly O-li-ver lay mus--ing in bed, 
B2 |c2 d2 e2 |(fd) B2 (cd) |e2 G2 =A2 | B4 
w:A sud-den strange fan--cy came_ in-to her head;
B2 |(cd) e2 f2 |d2 (BA) (GF) |E3 F G2 | c4 
w: "Nor fa--ther nor mo-ther_ shall_ make me false prove!
d2 |e2 d2 c2 |(BG) E2 F2 |(GE) C2 D2 | E4  |]
w: I'll 'list for a sol--dier and fol--low my love!" 